build/assets/img/svg/icon-arrow-3.svg

<svg width="117" height="99" viewBox="0 0 117 99" fill="none" xmlns="http://www.w3.org/2000/svg">
<path d="M90.7723 71.5968L89.3635 70.1891C88.226 71.4633 87.0886 72.7374 85.7589 73.9481L87.1677 75.3558C88.4172 74.3543 89.6348 72.871 90.7723 71.5968ZM83.371 79.0514L82.0424 77.4345C80.7128 78.6453 79.4633 79.6468 78.2138 80.6483L79.2702 82.411C80.7118 81.4729 81.9612 80.4714 83.371 79.0514ZM74.8651 85.4345L74.0811 83.526C73.5365 83.8175 72.9919 84.1091 72.7196 84.2549C71.7106 84.6288 70.8937 85.0661 69.8846 85.44L70.3964 87.4942C71.4054 87.1203 72.6066 86.8099 73.5036 86.1633C73.7759 86.0176 74.3205 85.726 74.8651 85.4345ZM65.2073 88.6093L65.16 86.4727C63.5745 86.6563 62.0692 86.6307 60.644 86.3959L60.2268 88.6148C61.652 88.8496 63.4297 88.7294 65.2073 88.6093ZM56.3365 85.2097C55.0716 84.5564 53.8067 83.9032 52.7021 82.8316L51.2122 84.4607C52.3168 85.5323 53.8858 86.5216 55.3429 87.2383L56.3365 85.2097ZM50.2051 79.1794C49.6451 77.8162 49.0851 76.453 48.8775 74.7348L46.8594 75.4826C47.2591 77.2642 47.6589 79.0458 48.4111 80.4724L50.2051 79.1794ZM48.4787 70.1256C48.3831 68.6801 48.5599 67.0888 48.6246 65.2249L46.4626 65.2182C46.3979 67.0821 46.1411 68.8826 46.2366 70.3281L48.4787 70.1256ZM49.1229 59.9691L49.2996 58.3778C49.5082 57.2683 49.5246 56.0955 49.8133 54.7768L47.6514 54.7701C47.4428 55.8796 47.4264 57.0524 47.2178 58.1619L47.0411 59.7532L49.1229 59.9691ZM50.2314 49.7302C50.216 48.0755 50.2807 46.2116 50.2653 44.5568L48.2154 44.8228C48.2308 46.4775 48.2462 48.1322 48.2617 49.787L50.2314 49.7302ZM49.8347 39.4658C49.6271 37.7476 49.4195 36.0295 49.1318 34.5205L47.1137 35.2683C47.4014 36.7772 47.609 38.4954 47.8968 40.0044L49.8347 39.4658ZM47.9644 29.6575C47.4846 28.0852 47.0047 26.5128 46.5248 24.9404L44.6187 25.9608C45.0986 27.5332 45.6586 28.8964 46.1385 30.4688L47.9644 29.6575ZM44.6207 20.3056C43.8685 18.879 43.1965 17.2432 42.4443 15.8165L40.6503 17.1096C41.4024 18.5362 42.1546 19.9628 42.7146 21.326L44.6207 20.3056ZM39.8353 11.8917C38.8109 10.6109 38.0587 9.18424 37.0342 7.9034L35.3522 9.4691C36.3766 10.7499 37.209 11.9674 38.0413 13.1848L39.8353 11.8917ZM33.8807 4.2701C33.2724 3.59797 32.664 2.92586 32.0557 2.25373L30.5658 3.88284C31.1741 4.55498 31.8626 5.0179 32.4709 5.69003L33.8807 4.2701Z" fill="black"/>
<path d="M92.5223 83.2703L90.3596 83.2636L91.2444 72.4744L80.9593 73.3226L80.9119 71.1851L93.5201 69.925L92.5223 83.2703Z" fill="black"/>
</svg>

<svg width="117" height="99" fill="none" xmlns="http://www.w3.org/2000/svg"><path d="M90.772 71.597l-1.409-1.408c-1.137 1.274-2.274 2.548-3.604 3.76l1.409 1.407c1.25-1.002 2.467-2.485 3.604-3.76zm-7.401 7.454l-1.329-1.617c-1.33 1.211-2.579 2.213-3.828 3.214l1.056 1.763c1.442-.938 2.691-1.94 4.101-3.36zm-8.506 6.383l-.784-1.908-1.361.729c-1.01.374-1.826.811-2.835 1.185l.511 2.054c1.01-.374 2.21-.684 3.108-1.33l1.361-.73zm-9.658 3.175l-.047-2.136c-1.585.183-3.09.158-4.516-.077l-.417 2.219c1.425.235 3.203.114 4.98-.006zm-8.87-3.4c-1.265-.653-2.53-1.306-3.635-2.377l-1.49 1.629c1.105 1.071 2.674 2.06 4.13 2.777l.995-2.028zm-6.132-6.03c-.56-1.363-1.12-2.726-1.328-4.444l-2.018.748c.4 1.781.8 3.563 1.552 4.99l1.794-1.294zm-1.726-9.053c-.096-1.446.08-3.037.146-4.901l-2.162-.007c-.065 1.864-.322 3.665-.226 5.11l2.242-.202zm.644-10.157l.177-1.591c.208-1.11.225-2.282.513-3.601l-2.162-.007c-.208 1.11-.225 2.282-.433 3.392l-.177 1.591 2.082.216zM50.23 49.73c-.015-1.654.05-3.518.034-5.173l-2.05.266.047 4.964 1.97-.057zm-.396-10.264c-.208-1.718-.416-3.437-.703-4.946l-2.018.748c.287 1.51.495 3.227.783 4.736l1.938-.538zm-1.87-9.809l-1.44-4.717-1.906 1.02c.48 1.573 1.04 2.936 1.52 4.509l1.825-.812zm-3.344-9.351c-.753-1.427-1.425-3.063-2.177-4.49L40.65 17.11c.752 1.426 1.505 2.853 2.065 4.216l1.906-1.02zm-4.786-8.414c-1.024-1.281-1.776-2.708-2.8-3.989L35.351 9.47c1.025 1.28 1.857 2.498 2.69 3.716l1.793-1.293zM33.881 4.27l-1.825-2.016-1.49 1.629c.608.672 1.297 1.135 1.905 1.807l1.41-1.42z" fill="#000"/><path d="M92.522 83.27l-2.162-.006.884-10.79-10.285.849-.047-2.138 12.608-1.26-.998 13.345z" fill="#000"/></svg>
